X:2302
T:Corteen's Mylecharaine
C:Traditional
O:Isle of Man 
N:See also KV 247,294,295,373,403,404.
Z:Kiaull Vannin #302
M:3/4 
L:1/4
K:D
e|(eBe)|(eBe)|d/c/ B/A/ G/F/|F E f|g f e|e ^d e|f2 f|
fb a/g/|f g e|e B/A/ G/F/|F G A|B A/G/ F/E/|E2 ^d|e2||

